X: 8635
T: Crooked Way To Dublin, The
R: reel
M: 4/4
K: Gmajor
c2|:BGAG EGDE|GABd efgd|BGAG EGDE|GEDE G2 c2:|
Bdef g2 (fg)|afdf edBA|Bdef g2 (fg)|afdf e2e2|
Bdef g2 (fg)|afdf edBd|bgaf gfed|egfa gfgd||

